!!!COM: Scriabin, Alexander
!!!OTL@@FR: Nocturne en la majeur
!!!OTL@@EN: Nocturne in A Major
!!!OPR@@FR: 2 Nocturnes
!!!OPR@@EN: 2 Nocturnes
!!!OPS: 5
!!!ONM: 2
!!!ODT: 1890
!!!AGN: Nocturne
**kern	**kern	**dynam
*staff2	*staff1	*staff1/2
*Ipiano	*Ipiano	*
*clefF4	*clefG2	*
*k[f#c#g#]	*k[f#c#g#]	*
*A:	*A:	*
*M6/8	*M6/8	*
=1	=1	=1
*	*^	*
8AAL	[2.a	4.cc#	.
8E	.	.	.
8c#J	.	.	.
8B#X/L	.	[4.dd#X	.
8g#>	.	.	.
8f#>J	.	.	.
=2	=2	=2	=2
8fn>L	4.ryy	8a] 8dd#L]	.
8e>	.	8cc# 8ee	.
8d#>XJ	.	8aJ 8ff#	.
8e>L	4ryy	8cc#L 8aa	.
8c#/	.	8a 8ee	.
8F#XJ	8a	8eJ 8cc#	.
=3	=3	=3	=3
8BB/L	2.d 2.dd	8aL	.
8F#	.	8.g#	.
8BBJ	.	.	.
.	.	16f#Jk	.
8FF#L	.	[4.f#	.
8BB	.	.	.
8FF#J	.	.	.
*	*v	*v	*
=4	=4	=4
*^	*	*
4.BBB	4.D 4.A	8f#L]	.
.	.	8e	.
.	.	8dJ	.
4FFn	4.D 4.G#X	8c#L	.
.	.	8A#X	.
8EE	.	8BJ	.
*v	*v	*	*
=5	=5	=5
*	*^	*
16qC#LL	.	.	.
16qA	.	.	.
16qc#	.	.	.
16qc#JJ	.	.	.
8AAA\L	[2.a	4.cc#	.
8E	.	.	.
8c#J	.	.	.
8B#XL	.	[4.dd#X	.
8g#>	.	.	.
8f#>J	.	.	.
=6	=6	=6	=6
8fn>L	4.ryy	8a] 8dd#L]	.
8e>	.	8cc# 8ee	.
8d#X>J	.	8aJ 8ff#	.
8e>L	4ryy	8cc#L 8aa	.
8c#/	.	8a 8ee	.
8F#XJ	8e	8aJ 8cc#	.
=7	=7	=7	=7
8BBL	4.en 4.a 4.cc#	8ee#XL	.
8F#	.	8ff#	.
8eJ	.	8gg#J	.
8g#L	4cc#	8bbL	.
8f#	.	8aa	.
8fnJ	8b 8dd#X 8aa	8bbJ	.
*	*v	*v	*
=8	=8	=8
8eL	[4.g# [4.ee	.
8d#X	.	.
8c#J	.	.
8cnL	4g#] 4ee]	.
8A#X	.	.
8BJ	[8gn	.
=9	=9	=9
*	*^	*
8EL	4ryy	4.g] 4.b	.
8B	.	.	.
8f#J	8ryy	.	.
8f#L	4.gn 4.a#X	4b#X	.
8e	.	.	.
8BJ	.	8cc#	.
=10	=10	=10	=10
8BL	4gn	4.d 4.dd	.
8D	.	.	.
8F#J	8f#	.	.
8c#L	4.d 4.e#X	8g#XL	.
8B	.	8f##X	.
8F#XJ	.	8g#J	.
*	*v	*v	*
=11	=11	=11
8F#L	4.A 4.d 4.a	.
8Gn	.	.
8F#J	.	.
8FnL	4.B 4.d 4.g#X 4.b	.
8F#X	.	.
8FnJ	.	.
=12	=12	=12
8EL	2.B#X 2.d 2.g# 2.b#X	.
8e>/	.	.
8ee>J	.	.
4ee>	.	.
8e>	.	.
=13	=13	=13
*	*^	*
8AAL	[2.a	4.cc#	.
8E	.	.	.
8c#J	.	.	.
8B#XL	.	[4.dd#X	.
8g#>/	.	.	.
8f#>J	.	.	.
=14	=14	=14	=14
8fn>L	4.ryy	8a] 8dd#L]	.
8e>	.	8cc# 8ee	.
8d#X>J	.	8aJ 8ff#	.
8e>L	4ryy	8cc#L 8aa	.
8c#>	.	8a 8ee	.
8F#XJ	8a	8eJ 8cc#	.
=15	=15	=15	=15
8BBL	8aL	4.d 4.dd	.
8F#	8.g#	.	.
8BBJ	.	.	.
.	16f#Jk	.	.
4.E	4.d	8f#L 8cc#	.
.	.	8gn 8b	.
.	.	8g#XJ 8cc#	.
*	*v	*v	*
=16	=16	=16
8AAL	4.c# 4.a	.
8E	.	.
8BJ	.	.
8c#L	4r	.
8E	.	.
8GG#J	8r	.
=17	=17	=17
8FF#/L	4.f# 4.a	.
8C#	.	.
8AJ 8c#	.	.
8BL 8d	8.e#X 8.g#	.
8C#J	.	.
.	16f#LL 16a	.
8r	16e# 16g#	.
.	16f#JJ 16a	.
=18	=18	=18
8AL 8c#	16aLL 16cc#	.
.	16b 16dd	.
16C#Jk	16a 16cc#	.
16r	16B#X 16f#	.
8r	16f# 16a	.
.	16aJJ 16dd	.
8AL 8f#	8ddL 8ff#/	.
8C#J	8f#	.
8r	8g#J	.
=19	=19	=19
*^	*^	*
4ryy	8FF#L	4.A 4.c# 4.f#	4.a	.
.	8C#	.	.	.
8ryy	8F#J	.	.	.
4C#	8GnL	4B 4d	16gnLL	.
.	.	.	16f#	.
.	8G#XJ	.	16e#X	.
.	.	.	16dd	.
8ryy	8C# 8G# 8d	8e#	16cc#	.
.	.	.	16bJJ	.
=20	=20	=20	=20	=20
4.C# 4.A	4d	4.f#	16aLL	.
.	.	.	16b	.
.	.	.	16a	.
.	.	.	16bJJ	.
.	8c#	.	8cc#	.
4.ryy	8C#L 8A#X 8e	4g	16gnLL	.
.	.	.	16ggn	.
.	8FF#J	.	16ff#	.
.	.	.	16ee	.
.	8F# 8e	8a#X	16dd	.
.	.	.	16cc#JJ	.
*v	*v	*	*	*
*	*v	*v	*
=21	=21	=21
8BBL	4.b 4.dd	.
8F#	.	.
8dJ 8f#	.	.
8eL 8gn	8.a#X 8.cc#	.
8F#J	.	.
.	16bLL 16dd	.
8r	16a# 16cc#	.
.	16bJJ 16dd	.
=22	=22	=22
8dL 8f#	16ddLL 16ff#/	.
.	16ee 16ggn	.
16F#Jk	16dd 16ff#	.
16r	16e#X 16b	.
8r	16dd 16gg	.
.	16ggJJ 16bb	.
8d>L 8b>	8.bbL 8.ddd	.
8F#/J	.	.
.	16ccc#Jk	.
8r	24bb/LL	.
.	24b	.
.	24cc#JJ	.
=23	=23	=23
*^	*^	*
4.BB	8BBL	4.d 4.f# 4.b	4.dd	.
.	8F#	.	.	.
.	8BJ	.	.	.
4F#	8cnL	4e 4gn	16ccnLL	.
.	.	.	16b	.
.	8c#XJ	.	16a#X	.
.	.	.	16ggn	.
8ryy	8F# 8c# 8gn	8a#	16ff#	.
.	.	.	16eeJJ	.
*v	*v	*	*	*
=24	=24	=24	=24
4.F# 4.d 4.f#	4.b	16ddLL	.
.	.	16ee	.
.	.	16dd	.
.	.	16eeJJ	.
.	.	8ff#	.
[8qE	.	.	.
4.E] 4.B-X 4.d 4.gn	4.b-X 4.dd	16ggnLL	.
.	.	16aa	.
.	.	16gg	.
.	.	16aaJJ	.
.	.	8qgg	.
.	.	8bb-X	.
=25	=25	=25	=25
8E-XL	8re	16raa	.
.	.	16bb-XLL	.
8B-X 8c#X 8gn	8b-XL	16aa	.
.	.	16ggn	.
8DJ 8B- 8d	8gnJ 8b-	16ffn	.
.	.	16ddJJ	.
8CnL	8re	16ee-XLL	.
.	.	16b-JJ	.
8F#X 8B- 8e-X	8f#XL	4b-	.
8F#J 8B- 8e-	8f#J	.	.
=26	=26	=26	=26
8CnL	8re	16raa	.
.	.	16ggnLL	.
8Gn 8A#X 8e	8gnL	16ff#	.
.	.	16ee	.
8BBJ 8G 8B	8eJ 8g	16dd	.
.	.	16bJJ	.
8AAL	8re	16ccnLL	.
.	.	16gJJ	.
8E-X 8G 8cn	8e-XL	4g	.
8E-J 8G 8c	8e-J	.	.
=27	=27	=27	=27
8AA-XL	8re	16raa	.
.	.	16ee-XLL	.
8E-X 8F# 8cn	8e-XL	16dd	.
.	.	16ccn	.
8GGnJ 8Gn	8e-J 8gn	16b	.
.	.	16ccJJ	.
4FF# 4F#	4e- 4a	16ddLL	.
.	.	16ee-	.
.	.	16dd	.
.	.	16ee-JJ	.
16r	16rc	16aa	.
16FFnLL 16Fn	[16A	16d#XLL	.
=28	=28	=28	=28
16EEJJ 16E	16A]	16c#JJ 16e	.
8E	8c#	16c#LL 16g#	.
.	.	16eJJ 16a	.
16c#	16r	16r	.
16d#XLL	[8a [8cc#	8ryy	.
16f#JJ	.	.	.
16f#LL	4.a] 4.cc#]	16.rccc	.
16eJJ	.	.	.
.	.	32ee	.
4d#	.	16ff#LL	.
.	.	16ccc#JJ	.
.	.	8ccc#	.
*	*v	*v	*
=29	=29	=29
*^	*	*
8EEL	8re	16r	.
.	.	16cc#	.
8BBJ 8A	16rf	4d#X 4b	.
.	16F#	.	.
8rFF	16.c#LL	.	.
.	32g#JJk	.	.
4rFF	4g#	4r	.
8rFF	8f#	8r	.
*v	*v	*	*
=30	=30	=30
*	*^	*
8EEL	4ryy	16r	.
.	.	16cc#LL	.
8BBJ 8G#	.	16dnJJ 16b	.
.	.	16f#	.
8r	8ryy	16.b/LL	.
.	.	32ff#JJk	.
8r	8re	8ff#L	.
4E 4d	4g#	8ee	.
.	.	8b#XJ	.
=31	=31	=31	=31
8AAL	[2.a	4.cc#	.
8E	.	.	.
8c#J	.	.	.
8B#X/L	.	[4.dd#X	.
8g#>	.	.	.
8f#>J	.	.	.
=32	=32	=32	=32
8fn>L	4.ryy	8a] 8dd#L]	.
8e>	.	8cc# 8ee	.
8d#X>J	.	8aJ 8ff#	.
8e>L	4ryy	8cc#L 8aa	.
8c#>	.	8a 8ee	.
8F#X/J	8a	8eJ 8cc#	.
=33	=33	=33	=33
8BB/L	8aL	2.d 2.dd	.
8F#	8.g#	.	.
8BBJ	.	.	.
.	16f#Jk	.	.
8FF#L	[4.f#	.	.
8BB	.	.	.
8FF#J	.	.	.
*	*v	*v	*
=34	=34	=34
*^	*	*
4.BBB	4.D 4.A	8f#L]	.
.	.	8e	.
.	.	8dJ	.
4FFn	4.D 4.G#X	8c#L	.
.	.	8A#X	.
8EE	.	8BJ	.
*v	*v	*	*
=35	=35	=35
*	*^	*
.	16qC#<LL	.	.
.	16qA<	.	.
.	16qc#<	.	.
.	16qc#JJ	.	.
8AAA\L	[2.a	4.cc#	.
8E	.	.	.
8c#J	.	.	.
8B#X/L	.	[4.dd#X	.
8g#>	.	.	.
8f#>J	.	.	.
=36	=36	=36	=36
8fn>L	4.ryy	8a] 8dd#L]	.
8e>	.	8cc# 8ee	.
8d#X>J	.	8aJ 8ff#	.
8e>L	4ryy	8cc#L 8aa	.
8c#>	.	8a 8ee	.
8F#X/J	8a	8eJ 8cc#	.
=37	=37	=37	=37
8BBL	4.en 4.a 4.cc#	8ee#XL	.
8F#	.	8ff#	.
8eJ	.	8gg#J	.
8g#L	4cc#	8bbL	.
8f#	.	8aa	.
8fnJ	8b 8dd#X 8aa	8bbJ	.
*	*v	*v	*
=38	=38	=38
8eL	[4.g# [4.ee	.
8d#X	.	.
8c#J	.	.
8cnL	4g#] 4ee]	.
8A#X	.	.
8BJ	[8gn	.
=39	=39	=39
*	*^	*
8EL	4ryy	4.g] 4.b	.
8B	.	.	.
8f#J	8ryy	.	.
8f#L	4.gn 4.a#X	4b#X	.
8e	.	.	.
8BnJ	.	8cc#	.
=40	=40	=40	=40
8BL	4gn	4.d 4.dd	.
8D	.	.	.
8F#J	8f#	.	.
8c#L	4.d 4.e#X	8g#XL	.
8B	.	8f##X	.
8F#XJ	.	8g#J	.
*	*v	*v	*
=41	=41	=41
8F#L	4.A 4.d 4.a	.
8Gn	.	.
8F#J	.	.
8FnL	4.B 4.d 4.g#X 4.b	.
8F#X	.	.
8FnJ	.	.
=42	=42	=42
8E/L	2.B#X 2.d 2.g# 2.b#X	.
8e>	.	.
8ee>J	.	.
4ee>	.	.
8e>	.	.
=43	=43	=43
*	*^	*
8AAL	[2.a	4.cc#	.
8E	.	.	.
8c#J	.	.	.
8B#X/L	.	[4.dd#X	.
8g#>	.	.	.
8f#>J	.	.	.
=44	=44	=44	=44
8fn>L	4.ryy	8a] 8dd#L]	.
8e>	.	8cc# 8ee	.
8d#X>J	.	8aJ 8ff#	.
8e>L	4ryy	8cc#L 8aa	.
8c#>	.	8a 8ee	.
8F#X/J	8a	8eJ 8cc#	.
=45	=45	=45	=45
8BBL	8aL	2.d 2.dd	.
8F#	8.g#	.	.
8BBJ	.	.	.
.	16f#Jk	.	.
8F#L	4.f#	.	.
8d	.	.	.
8c#J	.	.	.
=46	=46	=46	=46
*^	*	*	*
8FF#L	2.F#	8c#L	2.d 2.f#	.
8BB	.	8.B	.	.
8FF#J	.	.	.	.
.	.	16AJk	.	.
8BBL	.	4.A	.	.
8FF#	.	.	.	.
8BBJ	.	.	.	.
*v	*v	*	*	*
=47	=47	=47	=47
8BBBL 8BB	8A 8d 8fn	8ddL	.
8Fn 8d	8rc	8.ccn	.
8AJ 8a	8rc	.	.
.	.	16bJk	.
8FL 8d	4rc	4.b	.
8A 8a	.	.	.
8FJ 8d	8rc	.	.
=48	=48	=48	=48
8AAL 8A	4ryy	4.B 4.d 4.a 4.b	.
8.GGn 8.Gn	.	.	.
.	8ryy	.	.
16FFnJk 16Fn	.	.	.
8FFL 8F	4.A 4.B	8dL	.
8EE 8E	.	8.e	.
8DDJ 8D	.	.	.
.	.	16fnJk	.
=49	=49	=49	=49
8DDL 8D	4.A 4.d 4.fn	8ddL	.
8CCn 8Cn	.	8ee	.
8BBBJ 8BB	.	8ffnJ	.
4EEE 4EE	4d 4g# 4dd	8ff#XL	.
.	.	8bbJ	.
8r	8rA	8e	.
=50	=50	=50	=50
8AAL	2.d	4.e	.
8E	.	.	.
8c#J	.	.	.
8c#L	.	4.g# [4.ee	.
8B	.	.	.
8EJ	.	.	.
=51	=51	=51	=51
8AAL	4re	8eeL]	.
8E	.	8ff#	.
8d#XJ	8re	8gg#J	.
4.d#	4.a 4.cc# 4.ff#	8bbL	.
.	.	8aa	.
.	.	8ff#J	.
=52	=52	=52	=52
8AAL	4.dn	8g#L 8cc# 8ee	.
8F#	.	8f# 8b 8dd	.
8EJ	.	8g#J 8cc# 8ee	.
4c#	4.d	4.e 4.g#	.
8B	.	.	.
*	*v	*v	*
=53	=53	=53
8AAL	2.c# 2.f# 2.a	.
8D#X	.	.
8c#J	.	.
4c#	.	.
8D#	.	.
=54	=54	=54
*	*^	*
8AAL	2.dn	4.e	.
8E	.	.	.
8c#J	.	.	.
8c#L	.	4.g# [4.ee	.
8B	.	.	.
8EJ	.	.	.
=55	=55	=55	=55
8AAL	4re	8eeL]	.
8E	.	8ff#	.
8d#XJ	8re	8gg#J	.
4.d#	4.a 4.cc# 4.ff#	8bbL	.
.	.	8aa	.
.	.	8ff#J	.
=56	=56	=56	=56
8AAL	4.dn	8g#L 8cc# 8ee	.
8F#	.	8f# 8b 8dd	.
8EJ	.	8g#J 8cc# 8ee	.
4c#	4.d	4.e 4.g#	.
8B	.	.	.
*	*v	*v	*
=57	=57	=57
*^	*	*
4ryy	8AAL	[4.c# [4.f# [4.a	.
.	8D#X	.	.
8ryy	8c#J	.	.
4ryy	4c#	4c#] 4f#] 4a]	.
[8AA	[8E	8dn 8g# 8cc# 8ee	.
=58	=58	=58	=58
4.AA_	8EL]	[4.c# [4.f# [4.a	.
.	8D#X	.	.
.	8c#J	.	.
4AA]	4c#	4c#] 4f#] 4a]	.
[8AA	[8E	8dn 8g# 8cc# 8ee	.
=59	=59	=59	=59
4.AA_	8EL]	[4.c# [4.f# [4.a	.
.	8D#X	.	.
.	8c#J	.	.
4AA]	4c#	4c#] 4f#] 4a]	.
8rAA	8rA	8r	.
*v	*v	*	*
=60	=60	=60
4r	4r	.
8r	8r	.
4r	4r	.
8E	8e 8g# 8cc#	.
=61	=61	=61
4.F#	4.c# 4.f# 4.a	.
4.F#	4.e 4.a#X 4.cc#	.
=62	=62	=62
4.BB	4.d 4.an 4.dd	.
4.EE 4.E	4.d 4.g# 4.cc# 4.ee	.
=63	=63	=63
*	*^	*
2.AAA 2.AA 2.E 2.c#	2.c# 2.a 2.cc#	8ff#L	.
.	.	8gg#	.
.	.	8aaJ	.
.	.	4.aa	.
*	*v	*v	*
=64	=64	=64
2.r	2.r	.
==	==	==
*-	*-	*-
!!!filter: flipper -a
!!!RDF**kern: < = below
!!!RDF**kern: > = above
!!!system-decoration: {(*)}
!!!ENC: Bryan Jacob Bell
!!!END: November 2021 to April 2022
!!!PED: P. Jurgenson
